img/logo.svg

<svg width="162" height="39" viewBox="0 0 162 39" fill="none" xmlns="http://www.w3.org/2000/svg">
<g clip-path="url(#clip0)">
<path d="M49.5099 35.6516C49.5114 35.9514 49.4786 36.2505 49.4122 36.5433L49.3278 36.9116L48.9453 36.9633C46.837 37.2529 44.7109 37.4024 42.5818 37.4107H41.7274C41.3549 38.1021 41.0386 38.556 40.7654 38.7935L40.5253 39.0003L40.2206 38.9017C39.8462 38.7935 39.5165 38.5726 39.2786 38.2706C39.0407 37.9686 38.9067 37.6009 38.8959 37.2201C31.3254 36.4383 27.4192 33.2237 25.9538 29.6812C21.3058 35.1734 13.1028 38.388 8.00605 38.388C5.62494 38.388 3.60646 37.6837 3.17262 35.4674C14.1708 35.4674 23.9072 28.8541 23.9072 20.6221C23.9072 14.9247 19.1483 10.245 11.2151 9.78783C9.41186 14.5386 8.2627 23.2051 9.57414 30.0155C9.32697 30.0792 9.07083 30.1032 8.81576 30.0866C2.49207 29.9477 6.38332 14.6776 8.36537 9.9639C6.31046 10.3161 4.07506 10.9848 2.34304 10.9848C0.576251 10.9848 1.59796e-05 9.92836 1.59796e-05 8.73299C-0.000871624 8.40383 0.0352206 8.07556 0.107646 7.75407C2.75997 7.38703 5.43483 7.19652 8.11368 7.18384H9.62878C10.1255 6.19846 10.566 5.53132 10.8905 5.24539C11.6473 5.49255 12.2252 6.09347 12.0877 7.36153C22.3291 8.24999 27.6527 12.6923 29.0751 17.8502C29.8924 17.0405 30.7836 16.3051 31.7377 15.6533C35.1239 13.3223 39.4159 11.8167 42.6663 11.8167C45.8124 11.8167 46.7645 13.3045 47.0079 14.5516L47.1338 15.1977H46.4615C37.9355 15.1977 30.7309 20.2894 30.7309 26.3163C30.7309 30.6472 34.3423 33.8004 39.7619 34.2559C41.0568 30.5648 41.8698 24.1453 40.8862 19.0391L40.7935 18.5545L41.2803 18.4188C41.5279 18.3542 41.7845 18.3285 42.0404 18.3429C42.5158 18.3451 42.983 18.4648 43.3982 18.6908C43.8134 18.9167 44.1632 19.2416 44.4149 19.6352C46.4764 22.7044 44.5043 30.4937 43.2558 33.9748L43.8982 33.8375C45.0027 33.6001 46.1452 33.3529 47.1139 33.3529C48.6108 33.3416 49.5099 34.2058 49.5099 35.6516ZM30.8402 11.4565C33.5525 11.8894 36.177 9.6796 36.7052 6.53769C37.2334 3.39579 35.4633 0.484885 32.7511 0.0551953C30.0388 -0.374494 27.4159 1.83211 26.8877 4.9724C26.3595 8.11268 28.1296 11.0236 30.8402 11.4565Z" fill="#7BAFE4"/>
<path fill-rule="evenodd" clip-rule="evenodd" d="M69.0485 32.7176H64.172V16.0615H60.1268V32.7176H55.252V16.0615H51.2051V36.2327H73.0921V16.0615H69.0485V32.7176ZM80.6842 27.7843H88.157V24.2741H80.6842V19.5766H88.8955V16.0615H76.6422V36.2327H89.0479V32.7176H80.6842V27.7843ZM103.664 24.2692H96.1018V16.0615H92.0549V36.2327H96.1018V27.7843H103.664V36.2327H107.711V16.0615H103.664V24.2692ZM123.35 24.3694C122.629 23.8705 121.809 23.5224 120.943 23.3468C120.021 23.1532 119.08 23.0568 118.136 23.0593C117.899 23.0593 117.639 23.069 117.368 23.0884L116.556 23.1449C116.29 23.1643 116.043 23.1885 115.818 23.2176C115.593 23.2467 115.429 23.2709 115.331 23.2903V16.0615H111.284V36.0308C111.794 36.1522 112.312 36.239 112.834 36.2908C113.396 36.3479 113.952 36.3958 114.503 36.4346C115.054 36.4734 115.561 36.4971 116.025 36.5057C116.486 36.5154 116.856 36.5202 117.133 36.5202C119.869 36.5202 121.971 35.9344 123.438 34.7627C124.905 33.591 125.639 31.8523 125.639 29.5467C125.639 28.2608 125.432 27.1995 125.018 26.3627C124.643 25.573 124.07 24.8888 123.35 24.3742V24.3694ZM121.075 31.2767C120.88 31.685 120.58 32.0372 120.204 32.2993C119.814 32.5661 119.371 32.7525 118.904 32.8469C118.39 32.9554 117.866 33.0096 117.34 33.0084C116.946 33.0084 116.566 32.9939 116.202 32.9648C115.908 32.9472 115.617 32.9039 115.331 32.8356V26.8151C115.409 26.7957 115.531 26.7714 115.7 26.7424C115.869 26.7133 116.05 26.6907 116.247 26.6713L116.836 26.6131C117.033 26.5937 117.201 26.5841 117.333 26.5841C117.847 26.583 118.36 26.6213 118.868 26.6987C119.325 26.7632 119.763 26.9206 120.153 27.1607C120.528 27.4046 120.833 27.7383 121.039 28.13C121.284 28.6279 121.401 29.1771 121.378 29.7292C121.396 30.2605 121.292 30.7891 121.075 31.2767ZM154.555 15.9177H151.574L144.189 36.0695L137.425 26.7521L135.769 25.6213L137.366 24.5277L143.396 16.0615H138.783L133.082 24.5907L132.136 24.9945V16.0615H128.089V36.2327H132.136V27.6227H133.199L139.314 36.2392H148.175L149.741 31.7726H156.092L157.747 36.2392H162.001L154.555 15.9177ZM150.775 28.592L152.281 24.1255L152.901 20.927H153.05L153.662 24.1012L155.206 28.592H150.775Z" fill="#7BAFE4"/>
</g>
<defs>
<clipPath id="clip0">
<rect width="162" height="39" fill="white"/>
</clipPath>
</defs>
</svg>

<svg width="162" height="39" fill="none" xmlns="http://www.w3.org/2000/svg"><g clip-path="url(#clip0)" fill="#7BAFE4"><path d="M49.51 35.652c.001.3-.031.599-.098.891l-.084.369-.383.051c-2.108.29-4.234.44-6.363.448h-.855c-.372.691-.688 1.145-.962 1.383l-.24.206-.304-.098a1.853 1.853 0 01-.942-.631 1.779 1.779 0 01-.383-1.05c-7.57-.783-11.477-3.997-12.942-7.54-4.648 5.492-12.851 8.707-17.948 8.707-2.381 0-4.4-.704-4.833-2.92 10.998 0 20.734-6.614 20.734-14.846 0-5.697-4.759-10.377-12.692-10.834-1.803 4.75-2.952 13.417-1.64 20.227a2.412 2.412 0 01-.76.072c-6.323-.14-2.432-15.41-.45-20.123-2.055.352-4.29 1.02-6.022 1.02C.576 10.985 0 9.929 0 8.734c0-.33.035-.657.108-.979a60.497 60.497 0 018.006-.57h1.515c.497-.986.937-1.653 1.261-1.939.757.248 1.335.848 1.198 2.117 10.241.888 15.565 5.33 16.987 10.488a19.057 19.057 0 012.663-2.197c3.386-2.33 7.678-3.836 10.928-3.836 3.146 0 4.099 1.488 4.342 2.735l.126.646h-.672c-8.527 0-15.731 5.091-15.731 11.118 0 4.331 3.611 7.484 9.03 7.94 1.296-3.691 2.109-10.11 1.125-15.217l-.093-.485.487-.135c.248-.065.505-.09.76-.076a2.87 2.87 0 011.358.348c.415.226.765.55 1.017.944 2.061 3.07.09 10.859-1.16 14.34l.643-.138c1.105-.237 2.247-.484 3.216-.484 1.497-.011 2.396.853 2.396 2.299zM30.84 11.456c2.713.433 5.337-1.776 5.865-4.918.528-3.142-1.242-6.053-3.954-6.483-2.712-.43-5.335 1.777-5.863 4.917-.529 3.14 1.242 6.052 3.952 6.484z"/><path fill-rule="evenodd" clip-rule="evenodd" d="M69.049 32.718h-4.877V16.06h-4.045v16.657h-4.875V16.06h-4.047v20.172h21.887v-20.17H69.05v16.656zm11.635-4.934h7.473v-3.51h-7.473v-4.697h8.212V16.06H76.641v20.172h12.406v-3.515h-8.364v-4.934zm22.98-3.515h-7.562v-8.207h-4.047v20.17h4.047v-8.448h7.562v8.449h4.047V16.062h-4.047v8.207zm19.686.1a6.502 6.502 0 00-2.407-1.022 13.487 13.487 0 00-2.807-.288c-.237 0-.497.01-.768.03l-.812.056a13.388 13.388 0 00-1.225.145v-7.229h-4.047v19.97c.51.121 1.028.208 1.55.26.562.057 1.118.105 1.669.144a29.59 29.59 0 001.522.07c.461.01.831.015 1.108.015 2.736 0 4.838-.586 6.305-1.757 1.467-1.172 2.201-2.91 2.201-5.216 0-1.286-.207-2.348-.621-3.184a5.173 5.173 0 00-1.668-1.989v-.005zm-2.275 6.908a2.63 2.63 0 01-.871 1.022 3.55 3.55 0 01-1.3.548 7.488 7.488 0 01-1.564.161c-.394 0-.774-.014-1.138-.043a5.045 5.045 0 01-.871-.13v-6.02a7.66 7.66 0 01.916-.144l.589-.058c.197-.02.365-.029.497-.029a9.984 9.984 0 011.535.115c.457.064.895.222 1.285.462a2.6 2.6 0 01.886.969 3.31 3.31 0 01.339 1.6 3.513 3.513 0 01-.303 1.547zm33.48-15.36h-2.981l-7.385 20.152-6.764-9.317-1.656-1.13 1.597-1.094 6.03-8.466h-4.613l-5.701 8.529-.946.403v-8.933h-4.047v20.172h4.047v-8.61h1.063l6.115 8.616h8.861l1.566-4.466h6.351l1.655 4.466h4.254l-7.446-20.321zm-3.78 12.675l1.506-4.466.62-3.199h.149l.612 3.174 1.544 4.491h-4.431z"/></g><defs><clipPath id="clip0"><path fill="#fff" d="M0 0h162v39H0z"/></clipPath></defs></svg>
